packages/dnb-eufemia/assets/icons/bicycle.svg

<svg width="16" height="16" viewBox="0 0 16 16" fill="none" xmlns="http://www.w3.org/2000/svg">
<path d="M14.0667 4.75911C14.0667 4.24343 13.6417 3.81234 13.1333 3.81234H11.0128C10.6911 3.81301 10.4645 4.15621 10.5772 4.45551L11.2312 6.18021M7.06667 3.81234L5.19685 3.33824M3.86284 3L5.19685 3.33824M7.09156 8.16414L5.19685 3.33824M7.09156 8.16414L11.2312 6.18021M7.09156 8.16414L5.44332 8.95455M11.2312 6.18021L11.8288 7.75661M5.44332 8.95455C5.06935 8.15349 4.26513 7.59944 3.33333 7.59944C2.04467 7.59944 1 8.65916 1 9.96639C1 11.2736 2.04467 12.3333 3.33333 12.3333C4.622 12.3333 5.66667 11.2736 5.66667 9.96639C5.66667 9.60438 5.58655 9.26135 5.44332 8.95455ZM11.8288 7.75661C10.9541 8.09811 10.3333 8.95872 10.3333 9.96639C10.3333 11.2736 11.378 12.3333 12.6667 12.3333C13.9553 12.3333 15 11.2736 15 9.96639C15 8.65916 13.9553 7.59944 12.6667 7.59944C12.3714 7.59944 12.0889 7.65509 11.8288 7.75661Z" stroke="black" stroke-width="1.5" stroke-linecap="round" stroke-linejoin="round"/>
</svg>

<svg width="16" height="16" viewBox="0 0 16 16" fill="none" xmlns="http://www.w3.org/2000/svg"><path d="M14.236 3.812h-3.223c-.322.001-.549.344-.436.644l.654 1.724M7.067 3.812l-1.87-.474M3.863 3l1.334.338m1.895 4.826L5.197 3.338m1.895 4.826 4.14-1.984m-4.14 1.984-1.649.79m5.788-2.774.598 1.577M5.443 8.955a2.332 2.332 0 0 0-2.11-1.356C2.045 7.6 1 8.66 1 9.966c0 1.308 1.045 2.367 2.333 2.367 1.289 0 2.334-1.06 2.334-2.367 0-.362-.08-.705-.224-1.011Zm6.386-1.198a2.367 2.367 0 0 0-1.496 2.21c0 1.307 1.045 2.366 2.334 2.366 1.288 0 2.333-1.06 2.333-2.367S13.955 7.6 12.667 7.6a2.3 2.3 0 0 0-.838.158Z" stroke="#000" stroke-width="1.5" stroke-linecap="round" stroke-linejoin="round"/></svg>
